src/Assets/icons/heart-outline.svg

<svg class="svg-icon" viewBox="0 0 24 24" fill="currentColor" xmlns="http://www.w3.org/2000/svg">
<path d="M4.8824 12.9557L10.5021 19.3071C11.2981 20.2067 12.7019 20.2067 13.4979 19.3071L19.1176 12.9557C20.7905 11.0649 21.6596 8.6871 20.4027 6.41967C18.9505 3.79992 16.2895 3.26448 13.9771 5.02375C13.182 5.62861 12.5294 6.31934 12.2107 6.67771C12.1 6.80224 11.9 6.80224 11.7893 6.67771C11.4706 6.31934 10.818 5.62861 10.0229 5.02375C7.71053 3.26448 5.04945 3.79992 3.59728 6.41967C2.3404 8.6871 3.20947 11.0649 4.8824 12.9557Z" stroke="currentColor" stroke-width="2" stroke-linejoin="round"/>
</svg>

<svg class="svg-icon" viewBox="0 0 24 24" fill="currentColor" xmlns="http://www.w3.org/2000/svg"><path d="m4.882 12.956 5.62 6.351a2 2 0 0 0 2.996 0l5.62-6.351c1.673-1.891 2.542-4.269 1.285-6.536-1.452-2.62-4.113-3.156-6.426-1.396a13.084 13.084 0 0 0-1.766 1.654.284.284 0 0 1-.422 0 13.084 13.084 0 0 0-1.766-1.654C7.71 3.264 5.049 3.8 3.597 6.42c-1.257 2.267-.388 4.645 1.285 6.536Z" stroke="currentColor" stroke-width="2" stroke-linejoin="round"/></svg>
